flaticon/sport/cycling.svg

<svg xmlns="http://www.w3.org/2000/svg" width="32" height="32" viewBox="0 0 24 24">
    <path d="M 23.984375 2.425781 C 23.878906 1.621094 23.246094 1.203125 22.296875 1.3125 C 19.824219 1.59375 18.476562 1.527344 15.988281 1.308594 C 9.359375 0.734375 4.90625 1.582031 2.375 3.902344 C 0.796875 5.351562 0 7.378906 0 9.929688 L 0 12.515625 L 0.0078125 12.589844 C 0.222656 13.878906 0.9375 14.984375 2.027344 15.703125 C 2.886719 16.273438 3.941406 16.570312 5.042969 16.570312 C 5.5 16.570312 5.96875 16.511719 6.433594 16.410156 L 11.222656 18.003906 C 11.21875 18.046875 11.210938 18.082031 11.210938 18.121094 C 11.210938 18.96875 11.703125 19.691406 12.414062 20.046875 L 11.664062 22.296875 C 11.585938 22.523438 11.710938 22.765625 11.933594 22.84375 C 11.980469 22.859375 12.027344 22.863281 12.070312 22.863281 C 12.253906 22.863281 12.421875 22.75 12.480469 22.570312 L 13.25 20.265625 C 13.289062 20.269531 13.324219 20.277344 13.363281 20.277344 C 14.554688 20.277344 15.519531 19.3125 15.519531 18.121094 C 15.519531 17.277344 15.027344 16.550781 14.316406 16.199219 L 16.738281 8.933594 C 17.21875 8.820312 17.75 8.722656 18.347656 8.632812 C 21.421875 8.171875 24.226562 4.265625 23.984375 2.425781 Z M 14.65625 18.121094 C 14.65625 18.835938 14.078125 19.414062 13.363281 19.414062 C 12.652344 19.414062 12.070312 18.835938 12.070312 18.121094 C 12.070312 17.410156 12.652344 16.828125 13.363281 16.828125 C 14.078125 16.828125 14.65625 17.410156 14.65625 18.121094 Z M 13.480469 15.976562 C 13.441406 15.976562 13.40625 15.964844 13.363281 15.964844 C 12.519531 15.964844 11.792969 16.460938 11.441406 17.171875 L 7.949219 16.007812 C 10.195312 15.296875 10.824219 14.429688 12.4375 11.886719 C 13.300781 10.523438 14.214844 9.734375 15.734375 9.21875 Z M 18.21875 7.78125 C 14.707031 8.304688 13.125 9.191406 11.707031 11.425781 C 9.886719 14.292969 9.496094 14.789062 6.367188 15.546875 C 4.960938 15.886719 3.554688 15.679688 2.5 14.984375 C 1.625 14.40625 1.042969 13.515625 0.863281 12.480469 L 0.863281 9.929688 C 0.859375 7.597656 1.546875 5.832031 2.957031 4.539062 C 5.265625 2.417969 9.625 1.621094 15.914062 2.167969 C 18.40625 2.386719 19.855469 2.457031 22.394531 2.167969 C 23.070312 2.089844 23.109375 2.382812 23.132812 2.539062 C 23.304688 3.855469 20.839844 7.386719 18.21875 7.78125 Z M 18.21875 7.78125"/>
    <path d="M10.128906 6.71875C9.800781 6.601562 9.449219 6.613281 9.140625 6.761719L7.203125 7.660156C6.890625 7.808594 6.652344 8.066406 6.535156 8.390625 6.417969 8.714844 6.429688 9.066406 6.578125 9.378906 6.796875 9.851562 7.261719 10.125 7.75 10.125 7.933594 10.125 8.121094 10.085938 8.296875 10.003906L10.230469 9.105469C10.542969 8.960938 10.78125 8.699219 10.898438 8.375 11.015625 8.050781 11.003906 7.699219 10.855469 7.386719 10.710938 7.074219 10.453125 6.835938 10.128906 6.71875zM10.089844 8.082031C10.046875 8.1875 9.96875 8.277344 9.867188 8.324219L7.929688 9.226562C7.714844 9.324219 7.457031 9.230469 7.359375 9.015625 7.308594 8.914062 7.304688 8.796875 7.34375 8.6875 7.382812 8.578125 7.464844 8.492188 7.566406 8.445312L9.5 7.542969C9.605469 7.496094 9.722656 7.488281 9.832031 7.527344 9.941406 7.570312 10.027344 7.648438 10.074219 7.75 10.125 7.855469 10.128906 7.972656 10.089844 8.082031zM5.734375 10.765625C5.855469 10.441406 5.839844 10.089844 5.695312 9.777344 5.550781 9.464844 5.289062 9.230469 4.964844 9.109375 4.640625 8.992188 4.289062 9.003906 3.976562 9.152344L2.039062 10.050781C1.394531 10.351562 1.113281 11.125 1.414062 11.769531 1.558594 12.082031 1.820312 12.320312 2.144531 12.4375 2.289062 12.492188 2.4375 12.515625 2.589844 12.515625 2.773438 12.515625 2.960938 12.476562 3.132812 12.398438L5.066406 11.496094C5.378906 11.351562 5.617188 11.089844 5.734375 10.765625zM4.925781 10.472656C4.886719 10.578125 4.808594 10.667969 4.703125 10.714844L2.769531 11.613281C2.664062 11.664062 2.546875 11.667969 2.4375 11.628906 2.328125 11.589844 2.242188 11.511719 2.195312 11.40625 2.09375 11.191406 2.1875 10.933594 2.402344 10.832031L4.339844 9.933594C4.441406 9.882812 4.558594 9.878906 4.667969 9.917969 4.777344 9.957031 4.863281 10.039062 4.914062 10.140625 4.960938 10.246094 4.964844 10.363281 4.925781 10.472656zM3.226562 8.089844C3.371094 8.140625 3.523438 8.167969 3.671875 8.167969 3.859375 8.167969 4.042969 8.128906 4.214844 8.046875L6.152344 7.148438C6.464844 7.003906 6.699219 6.742188 6.820312 6.417969 6.9375 6.09375 6.921875 5.742188 6.777344 5.429688 6.632812 5.117188 6.375 4.878906 6.046875 4.761719 5.722656 4.640625 5.371094 4.65625 5.058594 4.800781L3.125 5.703125C2.8125 5.847656 2.574219 6.105469 2.457031 6.433594 2.335938 6.757812 2.351562 7.109375 2.496094 7.421875 2.640625 7.734375 2.902344 7.972656 3.226562 8.089844zM3.265625 6.726562C3.304688 6.621094 3.382812 6.53125 3.488281 6.484375L5.421875 5.582031C5.480469 5.558594 5.542969 5.542969 5.601562 5.542969 5.652344 5.542969 5.703125 5.554688 5.753906 5.570312 5.859375 5.609375 5.949219 5.6875 5.996094 5.792969 6.042969 5.894531 6.046875 6.011719 6.007812 6.121094 5.96875 6.230469 5.890625 6.316406 5.785156 6.367188L3.851562 7.265625C3.75 7.316406 3.632812 7.320312 3.523438 7.28125 3.414062 7.238281 3.328125 7.160156 3.277344 7.058594 3.230469 6.953125 3.226562 6.835938 3.265625 6.726562zM8.632812 11.265625C8.308594 11.144531 7.957031 11.160156 7.644531 11.304688L5.710938 12.207031C5.398438 12.351562 5.160156 12.613281 5.042969 12.9375 4.921875 13.261719 4.9375 13.613281 5.082031 13.925781 5.230469 14.238281 5.488281 14.476562 5.8125 14.59375 5.957031 14.644531 6.109375 14.671875 6.257812 14.671875 6.445312 14.671875 6.628906 14.632812 6.800781 14.550781L8.738281 13.652344C9.050781 13.507812 9.289062 13.246094 9.40625 12.921875 9.523438 12.597656 9.507812 12.246094 9.363281 11.933594 9.21875 11.621094 8.960938 11.382812 8.632812 11.265625zM8.59375 12.625C8.554688 12.734375 8.476562 12.820312 8.375 12.871094L6.4375 13.769531C6.335938 13.820312 6.21875 13.824219 6.109375 13.785156 6 13.742188 5.914062 13.664062 5.867188 13.5625 5.816406 13.457031 5.8125 13.339844 5.851562 13.230469 5.890625 13.125 5.96875 13.035156 6.074219 12.988281L8.007812 12.089844C8.113281 12.039062 8.230469 12.035156 8.339844 12.074219 8.449219 12.113281 8.535156 12.191406 8.582031 12.296875 8.628906 12.402344 8.636719 12.519531 8.59375 12.625zM8.59375 12.625"/>
</svg>

<svg xmlns="http://www.w3.org/2000/svg" width="32" height="32" viewBox="0 0 24 24">
    <path d="M23.984 2.426c-.105-.805-.738-1.223-1.687-1.114-2.473.282-3.82.215-6.309-.003C9.36.734 4.906 1.582 2.375 3.902.797 5.352 0 7.38 0 9.93v2.586l.008.074a4.59 4.59 0 0 0 2.02 3.113c.859.57 1.913.867 3.015.867a6.55 6.55 0 0 0 1.39-.16l4.79 1.594c-.004.043-.012.078-.012.117 0 .848.492 1.57 1.203 1.926l-.75 2.25a.432.432 0 0 0 .27.547c.046.015.093.02.136.02a.428.428 0 0 0 .41-.294l.77-2.304c.04.004.074.011.113.011a2.156 2.156 0 0 0 2.157-2.156c0-.844-.493-1.57-1.204-1.922l2.422-7.265c.48-.114 1.012-.211 1.61-.301 3.074-.461 5.879-4.367 5.636-6.207zM14.656 18.12a1.292 1.292 0 1 1-2.584.002 1.292 1.292 0 0 1 2.584-.002zm-1.176-2.144c-.039 0-.074-.012-.117-.012a2.15 2.15 0 0 0-1.922 1.207L7.95 16.008c2.246-.711 2.875-1.578 4.489-4.121.863-1.364 1.777-2.153 3.296-2.668zM18.22 7.78c-3.512.524-5.094 1.41-6.512 3.645-1.82 2.867-2.21 3.363-5.34 4.12-1.406.34-2.812.134-3.867-.562A3.74 3.74 0 0 1 .863 12.48V9.93c-.004-2.332.684-4.098 2.094-5.39C5.266 2.417 9.625 1.62 15.914 2.167c2.492.219 3.941.289 6.48 0 .676-.078.715.215.739.371.172 1.316-2.293 4.848-4.914 5.242zm0 0"/>
    <path d="M10.129 6.719a1.275 1.275 0 0 0-.988.043l-1.938.898c-.312.149-.55.406-.668.73-.117.325-.105.676.043.989a1.294 1.294 0 0 0 1.719.625l1.933-.899a1.28 1.28 0 0 0 .668-.73 1.277 1.277 0 0 0-.043-.988 1.273 1.273 0 0 0-.726-.668zm-.04 1.363a.451.451 0 0 1-.222.242l-1.937.903a.432.432 0 0 1-.364-.782L9.5 7.543a.444.444 0 0 1 .332-.016.438.438 0 0 1 .258.555zm0 0M5.734 10.766a1.276 1.276 0 0 0-.039-.989 1.293 1.293 0 0 0-1.718-.625l-1.938.899a1.297 1.297 0 0 0-.625 1.719c.145.312.406.55.73.668a1.32 1.32 0 0 0 .988-.04l1.934-.902a1.28 1.28 0 0 0 .668-.73zm-.808-.293a.424.424 0 0 1-.223.242l-1.933.898a.426.426 0 0 1-.333.016.433.433 0 0 1-.035-.797l1.938-.898a.416.416 0 0 1 .328-.016c.11.039.195.121.246.223.047.105.05.222.012.332zm0 0M3.227 8.09c.144.05.296.078.445.078.187 0 .371-.04.543-.121l1.937-.899a1.293 1.293 0 0 0-.105-2.386 1.276 1.276 0 0 0-.988.039l-1.934.902c-.313.145-.55.402-.668.73-.121.325-.105.676.04.989.144.312.405.55.73.668zm.039-1.363a.424.424 0 0 1 .222-.243l1.934-.902a.496.496 0 0 1 .18-.039.424.424 0 0 1 .406.578.431.431 0 0 1-.223.246l-1.933.899a.416.416 0 0 1-.329.015.46.46 0 0 1-.246-.222.444.444 0 0 1-.011-.332zm0 0M8.633 11.266a1.276 1.276 0 0 0-.988.039l-1.934.902a1.28 1.28 0 0 0-.668.73c-.121.325-.106.676.039.989a1.292 1.292 0 0 0 1.719.625l1.937-.899a1.294 1.294 0 0 0-.105-2.387zm-.04 1.359a.438.438 0 0 1-.218.246l-1.938.899a.416.416 0 0 1-.328.015.438.438 0 0 1-.257-.555.424.424 0 0 1 .222-.242l1.934-.898a.426.426 0 0 1 .332-.016c.11.04.195.117.242.223a.417.417 0 0 1 .012.328zm0 0"/>
</svg>
